X:1
T:O'er Boggie
M:C|
L:1/8
B:Daniel Wright – Aria di Camera (London, 1727, No. 30)
N:”being A Choice Collection of Scotch, Irish & Welsh Airs
N:for the Violin and German Flute by the following masters
N:Mr. Alex. Urquahart of Edinburgh, Mr. Dermot O'Connar of Limrick
N:Mr. Hugh Edwards of Carmarthen”
F:  https://ia600808.us.archive.org/20/items/AriaDiCamera1727/Wright-AriaDiCamera-1727.pdf
Z:AK/Fiddler’s Companion
K:D
(AB)|d>e (dB) dAAB|dd (e/d/c/B/) BA zA|Beed ef a>b|(a/>b/)(a/f/) (a/f/)(e/d/) B2||
AB|d2 (f/g/a) d2 (f/g/a)|d2 (e/d/)(c/B/) (BA) zA|Beed ef a>b|(a/b/)(a/f/) (a/f/e/d/) B2||

